src/ui/Svg/optimized/issuance.svg

<?xml version="1.0" standalone="no"?>
<!DOCTYPE svg PUBLIC "-//W3C//DTD SVG 1.1//EN" "http://www.w3.org/Graphics/SVG/1.1/DTD/svg11.dtd">
<svg class="icon" version="1.1" viewBox="0 0 1024 1024" fill="currentColor" aria-hidden="true">
  <path d="M666.29601621 489.3196891h91.14844046l184.31635912-158.7233371c-7.96140999-18.75785955-17.08790557-37.01084957-27.37948445-54.64246045l-244.27937223 210.06472534-3.84477866 3.30107221zM534.48612978 45.96622222v74.56540445l75.03143822-64.77869512A500.86980267 500.86980267 0 0 0 534.48612978 45.96622222z m385.83713223 443.35346688l53.16668644-45.63247331a453.91689955 453.91689955 0 0 0-14.95191666-65.16705736l-129.09135645 110.99371179 90.87658667-0.19418112M768.12439666 122.08507221l-233.63826688 200.58870557v78.48785579l281.87276288-242.64825402c-15.26260622-13.20428999-31.37960733-25.36000512-48.234496-36.42830734m-103.84785977-51.30255132L534.52496555 182.51411911v78.41018311l190.29712668-164.00505401a482.50030421 482.50030421 0 0 0-60.50671957-26.2144m224.20108401 165.71384491c-11.65084445-15.80631267-24.19492067-30.91357355-37.67106446-45.16644067l-316.32042666 271.77536512v26.29207153h60.27370268l293.71778844-252.90099598M490.44593778 45.96622222c-257.48366222 12.27222243-456.20823267 230.60904733-443.93600911 487.70434845a465.64541667 465.64541667 0 0 0 98.33312712 264.6295131l345.3698651-296.90235222V45.96622222h0.23301689z m29.98150599 487.47133156l-346.8068022 298.14510933A465.1793829 465.1793829 0 0 0 512.3883611 978.03377778C762.64849977 978.03377778 966.38293333 780.8238171 978.03377778 533.43755378H520.42744377"/>
</svg>

<svg xmlns="http://www.w3.org/2000/svg" class="icon" viewBox="0 0 1024 1024" fill="currentColor" aria-hidden="true">
  <path d="M666.296 489.32h91.148l184.317-158.724a481.643 481.643 0 00-27.38-54.642L670.102 486.019l-3.845 3.3zM534.486 45.966v74.566l75.032-64.78a500.87 500.87 0 00-75.032-9.786zM920.323 489.32l53.167-45.633a453.917 453.917 0 00-14.952-65.167L829.447 489.514l90.876-.194M768.124 122.085L534.486 322.674v78.488L816.36 158.513a457.635 457.635 0 00-48.235-36.428M664.277 70.783L534.525 182.514v78.41L724.822 96.92a482.5 482.5 0 00-60.507-26.214m224.201 165.714c-11.65-15.807-24.194-30.914-37.67-45.167L534.524 463.028v26.292h60.274l293.717-252.901M490.446 45.966C232.962 58.238 34.238 276.576 46.51 533.671a465.645 465.645 0 0098.333 264.63l345.37-296.903V45.966h.233zm29.981 487.472L173.621 831.583a465.18 465.18 0 00338.767 146.45c250.26 0 453.995-197.21 465.646-444.595H520.427"/>
</svg>
